X:1
T:Better Days Are Dawning
T:Better Days Are Dawning
T:Guy Irving Waltz
T:Annie Lewis Pinfold, 1908
T:Public Domain Courtesy of the Cyber Hymnal™
C:Guy Irving Waltz
Z:Public Domain
Z:Courtesy of the Cyber Hymnal™
%%score ( 1 2 ) ( 3 4 )
L:1/8
Q:1/4=90
M:4/4
K:Ab
V:1 treble 
V:2 treble 
V:3 bass 
V:4 bass 
V:1
 c3 (z G)[EB] [EA]3 | [DE]>[D=E] [DF]>[DE] [C_E]4 | [Ec]3 [DB] [CA]2 [Ec]2 | %3
w: 1.~Cour- * age, mo-|* ther, though your child-|ren stray Far from|
w: 2.~Cease * not pray-|* ing, sad, dis- heart-|ened wife, For the|
w: 3.~Wea- * ry suf-|* ferer, through long hours|of pain, By you|
w: 4.~All * who fal-|* ter ’neath a load|of care, Christ will|
 [GB]>[Gc] [Gd]>[Gc] [GB]4 |S [Ec]2 [EA]2 [=Ec]2 [FA]2 | [DA]>[DA] [DG]>[DF] [CE]4 | %6
w: paths of love and peace|a- way. Work on,|pray on, though the sky’s|
w: one that’s dear- er far|than life. Work on,|pray on, though the sky’s|
w: stands the Com- fort- er|a- gain. Work on,|pray on, though the sky’s|
w: aid, your hea- vy bur-|dens share. Work on,|pray on, though the sky’s|
 F[Fd][Fc][FB] [Ee] [Ec]2 [CA] | [Ec]>[EB] [EA]>[DG] [CA]4!fine! || %8
w: o’er- cast; Bet- ter days are dawn-|ing, and joy will come|
w: o’er- cast; Bet- ter days are dawn-|ing, and joy will come|
w: o’er- cast; Bet- ter days are dawn-|ing, and joy will come|
w: o’er- cast; Bet- ter days are dawn-|ing, and joy will come|
"^Refrain" [Ec]>[EB] [EA][EB] [Ac] [EA]3 | [FA]>[FA] [EG]>[DF] [CE]4 | %10
w: at last. * * * *||
w: at last. Bet- ter days are|dawn- ing; joy will come|
w: at last. * * * *||
w: at last. * * * *||
 [CE]>[CE] [EA]>[EB] [Ec] [EA]3 | [GB]>[Gc] [Gd]>[Gc] [GB]4!D.S.! |] %12
w: ||
w: at last God will hear and|an- swer, as in ag-|
w: ||
w: ||
V:2
 E2 E2 x5 | x8 | x8 | x8 | x8 | x8 | F x7 | x8 || x8 | x8 | x8 | x8 |] %12
V:3
 [A,,A,]2 [A,,A,]2 [C,A,]2 [C,A,]2 x | [E,B,]>[E,A,] [E,G,]>[E,G,] [A,,A,]4 | %2
 A,3 [E,G,] [A,,A,]2 [A,,A,]2 | [E,D]>[E,C] [E,B,]>[E,C] [E,D]4 | [A,C]2 [A,C]2 [G,C]2 [F,C]2 | %5
 [D,F,]>[D,F,] [D,G,]>[D,A,] [A,,A,]4 | [D,A,][D,A,][D,A,][D,A,] [C,A,] [A,,A,]2 [F,A,] | %7
 [E,A,]>[E,D] [E,C]>[E,B,] [A,,A,]4 || [A,E]>[A,D] [A,C][A,D] [A,E] [A,C]3 | %9
 [D,A,]>[D,A,] [D,D]>[D,A,] [A,,A,]4 | [A,,A,]>[A,,A,] [C,A,]>[E,G,] A, [A,C]3 | %11
 [E,D]>[E,C] [E,B,]>[E,C] [E,D]4 |] %12
V:4
 x9 | x8 | A,3 x5 | x8 | x8 | x8 | x8 | x8 || x8 | x8 | x4 A, x3 | x8 |] %12

